static/fa/svgs/regular/face-grin-stars.svg

<svg xmlns="http://www.w3.org/2000/svg" viewBox="0 0 512 512"><!--! Font Awesome Free 6.1.1 by @fontawesome - https://fontawesome.com License - https://fontawesome.com/license/free (Icons: CC BY 4.0, Fonts: SIL OFL 1.1, Code: MIT License) Copyright 2022 Fonticons, Inc.--><path d="m199.8 167.3 38.1 5c2.2.4 5.6 2.5 6.6 5.5.9 2.9.1 6.1-2.1 8.2l-27.9 26.5 7 37.8c.5 3.1-.7 6.1-3.2 7.9-2.5 1.9-5.8 2.1-8.5.6l-34.7-18.3-32.9 18.3c-2.7 1.5-6 1.3-8.5-.6-2.5-1.8-4.6-4.8-3.2-7.9l7-37.8-27.9-26.5c-2.2-2.1-3-5.3-2.1-8.2 1-3 3.5-5.1 6.6-5.5l38.1-5 16.6-34.7c1.3-2.8 4.1-4.6 6.3-4.6 4 0 6.8 1.8 8.1 4.6l16.6 34.7zm160 0 38.1 5c2.2.4 5.6 2.5 6.6 5.5.9 2.9.1 6.1-2.1 8.2l-27.9 26.5 7 37.8c.5 3.1-.7 6.1-3.2 7.9-2.5 1.9-5.8 2.1-8.5.6L336 240.5l-33.8 18.3c-2.7 1.5-6 1.3-8.5-.6-2.5-1.8-4.6-4.8-3.2-7.9l7-37.8-27.9-26.5c-2.2-2.1-3-5.3-2.1-8.2 1-3 3.5-5.1 6.6-5.5l38.1-5 16.6-34.7a7.934 7.934 0 0 1 14.4 0l16.6 34.7zm-10.3 141.1c18.7-5.3 35.9 12 24.6 28.1-23.7 38.1-67.8 62.6-118.2 62.6-50.3 0-94.4-24.5-119-62.6-10.4-16.1 6.8-33.4 25.4-28.1 29 6.7 60.5 10.4 93.6 10.4 33.1 0 64.7-3.7 93.6-10.4zM0 256C0 114.6 114.6 0 256 0s256 114.6 256 256-114.6 256-256 256S0 397.4 0 256zm256 208c114.9 0 208-93.1 208-208S370.9 48 256 48 48 141.1 48 256s93.1 208 208 208z"/></svg>

<svg xmlns="http://www.w3.org/2000/svg" viewBox="0 0 512 512"><!--! Font Awesome Free 6.1.1 by @fontawesome - https://fontawesome.com License - https://fontawesome.com/license/free (Icons: CC BY 4.0, Fonts: SIL OFL 1.1, Code: MIT License) Copyright 2022 Fonticons, Inc. --><path d="M199.8 167.3L237.9 172.3C240.1 172.7 243.5 174.8 244.5 177.8C245.4 180.7 244.6 183.9 242.4 186L214.5 212.5L221.5 250.3C222 253.4 220.8 256.4 218.3 258.2C215.8 260.1 212.5 260.3 209.8 258.8L175.1 240.5L142.2 258.8C139.5 260.3 136.2 260.1 133.7 258.2C131.2 256.4 129.1 253.4 130.5 250.3L137.5 212.5L109.6 186C107.4 183.9 106.6 180.7 107.5 177.8C108.5 174.8 111 172.7 114.1 172.3L152.2 167.3L168.8 132.6C170.1 129.8 172.9 128 175.1 128C179.1 128 181.9 129.8 183.2 132.6L199.8 167.3zM359.8 167.3L397.9 172.3C400.1 172.7 403.5 174.8 404.5 177.8C405.4 180.7 404.6 183.9 402.4 186L374.5 212.5L381.5 250.3C382 253.4 380.8 256.4 378.3 258.2C375.8 260.1 372.5 260.3 369.8 258.8L336 240.5L302.2 258.8C299.5 260.3 296.2 260.1 293.7 258.2C291.2 256.4 289.1 253.4 290.5 250.3L297.5 212.5L269.6 186C267.4 183.9 266.6 180.7 267.5 177.8C268.5 174.8 271 172.7 274.1 172.3L312.2 167.3L328.8 132.6C330.1 129.8 332.9 128 336 128C339.1 128 341.9 129.8 343.2 132.6L359.8 167.3zM349.5 308.4C368.2 303.1 385.4 320.4 374.1 336.5C350.4 374.6 306.3 399.1 255.9 399.1C205.6 399.1 161.5 374.6 136.9 336.5C126.5 320.4 143.7 303.1 162.3 308.4C191.3 315.1 222.8 318.8 255.9 318.8C289 318.8 320.6 315.1 349.5 308.4zM0 256C0 114.6 114.6 0 256 0C397.4 0 512 114.6 512 256C512 397.4 397.4 512 256 512C114.6 512 0 397.4 0 256zM256 464C370.9 464 464 370.9 464 256C464 141.1 370.9 48 256 48C141.1 48 48 141.1 48 256C48 370.9 141.1 464 256 464z"/></svg>
